X:679
T:Mary Young and Fair - harmony 2
Z:Nigel Gatherer
M:6/8
L:1/8
K:Em
e/e/e/e/e/e/ e/e/e/e/e/e/ | e/e/e/e/e/e/ d/d/d/d/d/d/ |
B/B/B/B/B/B/ G/G/G/G/G/G/ | F/F/F/F/F/F/ F/F/F/F/F/F/ |
E/E/E/E/E/E/ C/C/C/C/C/C/ | D/D/D/D/D/D/ F/F/F/F/F/F/ |
G/G/G/G/G/G/ F/F/F/F/F/F/ | E/E/E/E/E/E/ E3          :|
e/e/e/e/e/e/ d/d/d/d/d/d/ | B/B/B/B/B/B/ A/A/A/A/A/A/ |
G/G/G/G/G/G/ E/E/E/E/E/E/ | F/F/F/F/F/F/ F3           |
B/B/B/B/B/B/ c/c/c/c/c/c/ | d/d/d/d/d/d/ e/e/e/e/e/e/ |
g/g/g/g/g/g/ f/f/f/f/f/f/ | e/e/e/e/e/e/ e/e/e/e/e/e/ |
E.E.E.E.E.E. F3           | G.G.G.G.G.G. A.A.A.A.A.A. |
B.B.B.B.B.B. e.e.e.e.e.e. | d.d.d.d.d.d. d.d.d.d.d.d. |
e/e/e/e/e/e/ f/f/f/f/f/f/ | 
M:9/8
g/g/g/g/g/g/ g6           |
M:6/8
G/G/G/G/G/G/ F/F/F/F/F/F/ | E/E/E/E/E/E/ E/E/E/E/E/E/ |]
 
<end>
<start>
